src/assets/img/icons/duotone-icons/General/Shield-protected.svg

<?xml version="1.0" encoding="UTF-8"?>
<svg width="24px" height="24px" viewBox="0 0 24 24" version="1.1" xmlns="http://www.w3.org/2000/svg" xmlns:xlink="http://www.w3.org/1999/xlink">
    <!-- Generator: Sketch 52.2 (67145) - http://www.bohemiancoding.com/sketch -->
    <title>Stockholm-icons / General / Shield-protected</title>
    <desc>Created with Sketch.</desc>
    <g id="Stockholm-icons-/-General-/-Shield-protected" stroke="none" stroke-width="1" fill="none" fill-rule="evenodd">
        <rect id="bound" x="0" y="0" width="24" height="24"></rect>
        <path d="M4,4 L11.6314229,2.5691082 C11.8750185,2.52343403 12.1249815,2.52343403 12.3685771,2.5691082 L20,4 L20,13.2830094 C20,16.2173861 18.4883464,18.9447835 16,20.5 L12.5299989,22.6687507 C12.2057287,22.8714196 11.7942713,22.8714196 11.4700011,22.6687507 L8,20.5 C5.51165358,18.9447835 4,16.2173861 4,13.2830094 L4,4 Z" id="Path-50" fill="#335EEA" opacity="0.3"></path>
        <path d="M14.5,11 C15.0522847,11 15.5,11.4477153 15.5,12 L15.5,15 C15.5,15.5522847 15.0522847,16 14.5,16 L9.5,16 C8.94771525,16 8.5,15.5522847 8.5,15 L8.5,12 C8.5,11.4477153 8.94771525,11 9.5,11 L9.5,10.5 C9.5,9.11928813 10.6192881,8 12,8 C13.3807119,8 14.5,9.11928813 14.5,10.5 L14.5,11 Z M12,9 C11.1715729,9 10.5,9.67157288 10.5,10.5 L10.5,11 L13.5,11 L13.5,10.5 C13.5,9.67157288 12.8284271,9 12,9 Z" id="Combined-Shape" fill="#335EEA"></path>
    </g>
</svg>

<svg width="24" height="24" viewBox="0 0 24 24" xmlns="http://www.w3.org/2000/svg"><g fill="none" fill-rule="evenodd"><path d="M0 0h24v24H0z"/><path d="M4 4l7.631-1.43a2 2 0 01.738 0L20 4v9.283a8.51 8.51 0 01-4 7.217l-3.47 2.169a1 1 0 01-1.06 0L8 20.5a8.51 8.51 0 01-4-7.217V4z" fill="#335EEA" opacity=".3"/><path d="M14.5 11a1 1 0 011 1v3a1 1 0 01-1 1h-5a1 1 0 01-1-1v-3a1 1 0 011-1v-.5a2.5 2.5 0 115 0v.5zM12 9a1.5 1.5 0 00-1.5 1.5v.5h3v-.5A1.5 1.5 0 0012 9z" fill="#335EEA"/></g></svg>
